icon-svg/fingerbot.svg

<svg xmlns="http://www.w3.org/2000/svg" viewBox="0 0 24 24"><path fill="#44739e" d="M3.955 12.225a.63.63 0 0 0-.293.552l.135 4.166a.66.66 0 0 0 .4.584l2.009.845a.09.09 0 0 0 .092-.015l.2-.176a.1.1 0 0 0 .03-.07l-.02-.558a.18.18 0 0 1 .065-.145l.492-.4a.18.18 0 0 1 .189-.023.18.18 0 0 1 .1.162.088.088 0 0 0 .151.062l.165-.165a.1.1 0 0 0 .026-.067l-.178-3.371a.96.96 0 0 1 .379-.819l.979-.744a.09.09 0 0 0 .035-.071l-.037-1.657a.43.43 0 0 0-.121-.208l-1.674-.615a.09.09 0 0 0-.092.026l-.269.3a.09.09 0 0 0-.021.081.08.08 0 0 0 .052.062l.163.066a.179.179 0 0 1 .028.317Zm2.166 6.208-.603-.253.025 1.305.591-.021Zm-.301 1.21a1.3 1.3 0 0 0 .591-.093.4.4 0 0 0-.15-.053v.089l-.821.029a2.4 2.4 0 0 0 .38.028m-.401-.032v-.122a.5.5 0 0 0-.187.061.5.5 0 0 0 .187.061m.839-.37v.163c.133.026.245.07.245.146 0 .178-.615.184-.685.184s-.684-.006-.684-.184c0-.082.131-.127.279-.152v-.162c-.477.053-.784.194-.784.323 0 .163.487.344 1.187.344s1.181-.181 1.181-.344c0-.125-.286-.258-.739-.318m-.443.753a2.13 2.13 0 0 1-1.187-.266v.61c0 .163.487.344 1.187.344s1.182-.181 1.182-.344v-.607a2.15 2.15 0 0 1-1.182.263m6.984-10.171L3.983 6.629a.9.9 0 0 0-.284-.05.83.83 0 0 0-.822.853l.319 9.628a1.53 1.53 0 0 0 .961 1.367l1.247.5-.015-.8-1.227-.516a.75.75 0 0 1-.456-.664l-.134-4.167a.72.72 0 0 1 .334-.632l2.991-1.884a.09.09 0 0 0 .041-.081l-.309-.094v-.137l-.013-.035a.2.2 0 0 1 .009-.108l-.014-.563a.14.14 0 0 1 .059-.118.14.14 0 0 1 .08-.025.2.2 0 0 1 .051.009l1.991.77a.39.39 0 0 1 .246.35l.1 4.268a.16.16 0 0 1-.069.136.16.16 0 0 1-.15.019l-1.279-.486.158 2.801a.18.18 0 0 1-.052.136l-.165.165a.178.178 0 0 1-.306-.126.088.088 0 0 0-.144-.069l-.492.4a.1.1 0 0 0-.032.072l.021.558a.18.18 0 0 1-.062.142l-.2.176a.18.18 0 0 1-.111.043l.008.681c.4.048.735.16.816.33h.008v.116l5.902 2.353a.748.748 0 0 0 1.025-.7v-9.703a1.85 1.85 0 0 0-1.215-1.721m-1.537-3.976.687.271a.25.25 0 0 0 .215-.017l.747-.447-.818-.291Zm.822-1.25c-1.421 0-2.62.595-2.62 1.301s1.2 1.3 2.62 1.3 2.615-.6 2.615-1.3-1.2-1.301-2.615-1.301m1.133 1.301-.867.519a.6.6 0 0 1-.312.085.6.6 0 0 1-.222-.042l-.895-.362a.259.259 0 0 1-.023-.463l1.025-.6a.36.36 0 0 1 .288-.022l.953.339a.3.3 0 0 1 .053.534Zm7.74-.134v-.012h-.009a1.28 1.28 0 0 0-.7-.575l-9.227-3.141a.67.67 0 0 0-.607.09h-.008l-.048.03-7.187 4.442h.025a.95.95 0 0 1 .835-.091l8.817 3.194a1.97 1.97 0 0 1 1.3 1.851v9.703a.9.9 0 0 1-.08.366l6.219-4.756.05-.038a1 1 0 0 0 .143-.083 1.2 1.2 0 0 0 .238-.209l.022-.017v-.01a1.18 1.18 0 0 0 .261-.734l.122-9.365a1.3 1.3 0 0 0-.166-.645m-6.809 1.334a4.5 4.5 0 0 1-2.064.454 4.5 4.5 0 0 1-2.066-.454 1.45 1.45 0 0 1-.92-1.2 1.45 1.45 0 0 1 .917-1.201 4.5 4.5 0 0 1 2.066-.454 4.5 4.5 0 0 1 2.064.454 1.45 1.45 0 0 1 .917 1.201 1.45 1.45 0 0 1-.914 1.2"/></svg>

<?xml version="1.0" encoding="UTF-8"?>
<svg width="24px" fill="#44739e" height="24px" viewBox="0 0 24 24" version="1.1" xmlns="http://www.w3.org/2000/svg" xmlns:xlink="http://www.w3.org/1999/xlink">
            <path d="M 3.958,12.226 A 0.629,0.629 0 0 0 3.665,12.777 L 3.8,16.942 a 0.657,0.657 0 0 0 0.4,0.584 l 2.009,0.845 a 0.089,0.089 0 0 0 0.092,-0.015 l 0.2,-0.176 a 0.088,0.088 0 0 0 0.03,-0.07 l -0.02,-0.558 a 0.179,0.179 0 0 1 0.065,-0.145 l 0.492,-0.4 a 0.176,0.176 0 0 1 0.189,-0.023 0.179,0.179 0 0 1 0.1,0.162 0.088,0.088 0 0 0 0.15,0.062 L 7.672,17.043 A 0.089,0.089 0 0 0 7.698,16.976 L 7.52,13.606 A 0.963,0.963 0 0 1 7.899,12.787 L 8.878,12.044 A 0.09,0.09 0 0 0 8.913,11.973 L 8.876,10.316 A 0.432,0.432 0 0 0 8.755,10.108 L 7.082,9.493 A 0.089,0.089 0 0 0 6.99,9.519 l -0.269,0.3 A 0.085,0.085 0 0 0 6.7,9.9 0.084,0.084 0 0 0 6.752,9.962 l 0.163,0.066 a 0.179,0.179 0 0 1 0.028,0.317 z m 2.166,6.206 -0.603,-0.253 0.025,1.305 0.591,-0.021 z m -0.301,1.21 a 1.268,1.268 0 0 0 0.591,-0.093 0.378,0.378 0 0 0 -0.15,-0.053 v 0.089 l -0.821,0.029 a 2.363,2.363 0 0 0 0.38,0.028 z M 5.422,19.61 v -0.122 a 0.471,0.471 0 0 0 -0.187,0.061 0.462,0.462 0 0 0 0.187,0.061 z m 0.839,-0.37 v 0.163 c 0.133,0.026 0.245,0.07 0.245,0.146 0,0.178 -0.615,0.184 -0.685,0.184 -0.07,0 -0.684,-0.006 -0.684,-0.184 0,-0.082 0.131,-0.127 0.279,-0.152 v -0.162 c -0.477,0.053 -0.784,0.194 -0.784,0.323 0,0.163 0.487,0.344 1.187,0.344 C 6.519,19.902 7,19.721 7,19.558 7,19.433 6.714,19.3 6.261,19.24 Z M 5.818,19.993 A 2.135,2.135 0 0 1 4.631,19.727 v 0.61 c 0,0.163 0.487,0.344 1.187,0.344 C 6.518,20.681 7,20.5 7,20.337 V 19.73 A 2.154,2.154 0 0 1 5.818,19.993 Z M 12.8,9.824 3.986,6.631 A 0.859,0.859 0 0 0 3.702,6.581 0.828,0.828 0 0 0 2.881,7.434 L 3.2,17.059 a 1.527,1.527 0 0 0 0.96,1.367 l 1.247,0.5 -0.015,-0.8 L 4.165,17.61 A 0.746,0.746 0 0 1 3.709,16.946 L 3.575,12.78 A 0.723,0.723 0 0 1 3.909,12.149 L 6.9,10.265 A 0.087,0.087 0 0 0 6.941,10.184 L 6.632,10.09 V 9.953 A 0.209,0.209 0 0 1 6.619,9.918 0.18,0.18 0 0 1 6.628,9.81 L 6.614,9.247 A 0.139,0.139 0 0 1 6.673,9.129 0.138,0.138 0 0 1 6.753,9.104 0.152,0.152 0 0 1 6.804,9.113 l 1.99,0.77 a 0.385,0.385 0 0 1 0.246,0.35 l 0.1,4.267 a 0.16,0.16 0 0 1 -0.069,0.136 0.158,0.158 0 0 1 -0.15,0.019 L 7.642,14.169 7.8,16.969 A 0.177,0.177 0 0 1 7.748,17.105 L 7.583,17.27 A 0.178,0.178 0 0 1 7.278,17.144 0.088,0.088 0 0 0 7.134,17.075 l -0.492,0.4 A 0.089,0.089 0 0 0 6.61,17.547 l 0.021,0.558 a 0.179,0.179 0 0 1 -0.062,0.142 l -0.2,0.176 a 0.179,0.179 0 0 1 -0.111,0.043 l 0.008,0.681 c 0.4,0.048 0.735,0.16 0.816,0.33 H 7.09 v 0.041 a 0.174,0.174 0 0 1 0,0.039 0.22,0.22 0 0 1 0,0.036 l 5.9,2.352 a 0.748,0.748 0 0 0 1.025,-0.7 v -9.7 A 1.847,1.847 0 0 0 12.8,9.824 Z m -0.71,-4.46 v 0 z M 11.264,5.849 11.95,6.12 A 0.247,0.247 0 0 0 12.165,6.103 L 12.912,5.656 12.094,5.365 Z M 12.085,4.6 c -1.42,0 -2.619,0.594 -2.619,1.3 0,0.706 1.2,1.3 2.619,1.3 1.419,0 2.615,-0.6 2.615,-1.3 0,-0.7 -1.2,-1.3 -2.615,-1.3 z m 1.133,1.3 -0.867,0.519 A 0.615,0.615 0 0 1 12.039,6.504 0.608,0.608 0 0 1 11.817,6.462 L 10.923,6.1 A 0.259,0.259 0 0 1 10.9,5.637 l 1.024,-0.6 a 0.361,0.361 0 0 1 0.288,-0.022 v 0 l 0.953,0.339 a 0.3,0.3 0 0 1 0.053,0.534 z M 20.956,5.766 V 5.754 h -0.009 a 1.284,1.284 0 0 0 -0.7,-0.575 l -9.224,-3.14 a 0.667,0.667 0 0 0 -0.607,0.09 v 0 H 10.408 L 10.36,2.159 3.175,6.6 H 3.2 A 0.952,0.952 0 0 1 4.034,6.509 l 8.815,3.193 a 1.974,1.974 0 0 1 1.3,1.851 v 9.7 a 0.876,0.876 0 0 1 -0.08,0.366 l 6.217,-4.755 0.05,-0.038 a 1.283,1.283 0 0 0 0.143,-0.082 1.226,1.226 0 0 0 0.238,-0.209 l 0.022,-0.017 v -0.01 A 1.177,1.177 0 0 0 21,15.774 L 21.122,6.411 A 1.289,1.289 0 0 0 20.956,5.766 Z M 14.149,7.1 A 4.506,4.506 0 0 1 12.085,7.554 4.513,4.513 0 0 1 10.02,7.1 1.447,1.447 0 0 1 9.1,5.9 1.447,1.447 0 0 1 10.017,4.7 4.513,4.513 0 0 1 12.082,4.246 4.506,4.506 0 0 1 14.146,4.7 1.446,1.446 0 0 1 15.063,5.9 1.446,1.446 0 0 1 14.149,7.1 Z"/>

</svg>
